X:1
T:Zealley, 83.83.88.83
T:Zealley, 83.83.88.83
T:Elsie Zealley (1868-1965)
T:Public Domain Courtesy of the Cyber Hymnal™
C:Elsie Zealley (1868-1965)
Z:Public Domain
Z:Courtesy of the Cyber Hymnal™
%%score ( 1 2 ) ( 3 4 )
L:1/8
Q:1/4=113
M:6/8
K:D
V:1 treble 
V:2 treble 
V:3 bass 
V:4 bass 
V:1
 [FA] | [DF]2 [FA] [Fd][Gc][Gd] | [DB]2 [Dd] [DA]3 | [EG]3 [CA]3 | [DF]3- [DF]2 [FA] | %5
 [DF]2 [FA] [Fd][Gc][Ad] | [DB]2 [Gd] [FA]3 | [E^G]3 [Ge]3 | A3- A2 [Fd] | B^AB dcB | %10
 [GB]2 [FA] [FA]2 [DA] | GFG [GB][FA][EG] | [EG]2 [DF] [DF]2 [FA] | B ^AB dcB | [GB]2 [FA] [FA]3 | %15
 [Ge]3 [Ec]3 | [Fd]3- [Fd]2 |] %17
V:2
 x | x6 | x6 | x6 | x6 | x6 | x6 | x6 | A3- A2 x | G3 G3 | x6 | C3 x3 | x6 | G3 G3 | x6 | x6 | %16
 x5 |] %17
V:3
 [D,A,] | [D,A,]2 [D,D] [D,D][E,A,][F,D] | G,2 [B,,G,] [D,F,]3 | [A,C]3 [A,,A,]3 | %4
 [D,A,]3- [D,A,]2 [D,A,] | [D,A,]2 [D,D] [D,D][E,A,][F,D] | G,2 [B,D] D3 | [B,D]3 [E,D]3 | %8
 [A,C]3- [A,C]2 [D,D] | DC[G,D] D2 [G,D] | [D,D]3 [D,D]2 [F,A,] | A,3 A,3 | [D,A,]3 [D,A,]2 [D,D] | %13
 DC[G,D] D2 [G,D] | [D,D]2 [D,D] [D,D]3 | [C,A,]3 [A,,A,]3 | [D,A,]3- [D,A,]2 |] %17
V:4
 x | x6 | G,2 x4 | x6 | x6 | x6 | G,2 D3 x | x6 | x6 | G,2 B, A, x2 | x6 | E,^D,E, A,,B,,C, | x6 | %13
 G,2 B, A, x2 | x6 | x6 | x5 |] %17

